X:1
T:Trumpet Voluntary
T:Jeremiah Clarke
T:Prince of Denmark's March
L:1/8
Q:1/4=108
M:4/4
K:D
V:1 bass nm="Trombón" snm="Tbn."
V:1
"^Allegro maestoso"!f! D4 PE3 D/E/ | F3 G F2 E2 | D2 E2 F2 ED | E3 A, A,2 A,2 | D4 PE3 D/E/ | %5
 F3 G F2 E2 | DEDE PE3 D | D8 |!p! D4 PE3 D/E/ | F3 G F2 E2 | D2 E2 F2 D2 | E3 A, A,2 A,2 | %12
 D4 PE3 D/E/ | F3 G F2 E2 | D3 E PE3 D | D8 ||!mf! F4 P^G3 F/G/ | A3 B A2 G2 | F2 D2 D2 A,2 | %19
 D2 A,2 F,2 D,2 | F4 P^G3 F/G/ | A3 B A2 G2 | F3 E DEFG | E2 z!ff! (3A/A/A/ AAAA || D4 PE3 D/E/ | %25
 F3 G F2 E2 | D2 E2 F2 ED | E3 A, A,2 A,2 | D4 PE3 D/E/ | F3 G F2 E2 | DEDE PE3 D | D8 |] %32

